X:273
T: Feinslieb im Grab (3-75), S. 209
N: P1048
O: Lothringen
S: PINCK, Louis: Verklingende Weisen, Bd3, Metz 1933]
R: Liebeskummer, Tod]
M: 4/4
L: 1/8
K: Ab
CE | A2A2E2A2 | A3GA2
c2 | B3GG2A2 | B4z2
Bc | d3cB2ed | c3BA
EEd | c4B4 | A4z2
Bc | d3cB2ed | c3B2
EEd | c4B4 | A4z2

@@@ Tune index: 7823
